; generated by PrusaSlicer 2.5.0+win64 on 2023-02-05 at 18:04:49 UTC


;
;
; 

; external perimeters extrusion width = 0.45mm
; perimeters extrusion width = 0.45mm
; infill extrusion width = 0.45mm
; solid infill extrusion width = 0.45mm
; top infill extrusion width = 0.40mm
; first layer extrusion width = 0.42mm

M73 P0 R16
M73 Q0 S16
M201 X1000 Y1000 Z200 E5000 ; sets maximum accelerations, mm/sec^2
M203 X200 Y200 Z12 E120 ; sets maximum feedrates, mm / sec
M204 P1250 R1250 T1250 ; sets acceleration (P, T) and retract acceleration (R), mm/sec^2
M205 X8.00 Y8.00 Z0.40 E4.50 ; sets the jerk limits, mm/sec
M205 S0 T0 ; sets the minimum extruding and travel feed rate, mm/sec
M107
;TYPE:Custom
M862.3 P "MK3S" ; printer model check
M862.1 P0.4 ; nozzle diameter check
M115 U3.11.0 ; tell printer latest fw version
G90 ; use absolute coordinates
M83 ; extruder relative mode
M104 S215 ; set extruder temp
M140 S60 ; set bed temp
M190 S60 ; wait for bed temp
M109 S215 ; wait for extruder temp
G28 W ; home all without mesh bed level
G80 ; mesh bed leveling

G1 Z0.2 F720
G1 Y-3 F1000 ; go outside print area
G92 E0
G1 X60 E9 F1000 ; intro line
G1 X100 E12.5 F1000 ; intro line

G92 E0
M221 S95

; Don't change E values below. Excessive value can damage the printer.
M907 E430 ; set extruder motor current
G21 ; set units to millimeters
G90 ; use absolute coordinates
M83 ; use relative distances for extrusion
M900 K0.05 ; Filament gcode LA 1.5
M900 K30 ; Filament gcode LA 1.0
M107
;LAYER_CHANGE
;Z:0.2
;HEIGHT:0.2
;BEFORE_LAYER_CHANGE
G92 E0.0
;0.2


G1 E-.8 F2100
G1 Z.4 F720
;AFTER_LAYER_CHANGE
;0.2
G1 X100.515 Y97.443 F10800
G1 Z.2 F720
G1 E.8 F2100
M204 S800
;TYPE:Skirt/Brim
;WIDTH:0.42
G1 F1200
G1 X101.56 Y96.567 E.04278
G1 X102.5 Y96.373 E.03008
G1 X147.5 Y96.373 E1.41094
G1 X148.807 Y96.765 E.04278
G1 X149.683 Y97.81 E.04278
M73 Q1 S16
G1 X149.877 Y98.75 E.03008
G1 X149.877 Y111.25 E.39193
G1 X149.485 Y112.557 E.04278
M73 P1 R16
G1 X148.44 Y113.433 E.04278
G1 X147.5 Y113.627 E.03008
G1 X102.5 Y113.627 E1.41094
G1 X101.193 Y113.235 E.04278
G1 X100.317 Y112.19 E.04278
G1 X100.123 Y111.25 E.03008
G1 X100.123 Y98.75 E.39193
G1 X100.497 Y97.5 E.0409
M204 S1000
; printing object Sacred Geometries - Button Guide.stl id:0 copy 0
;WIPE_START
G1 F8640
G1 X101.56 Y96.567 E-.32671
G1 X102.5 Y96.373 E-.22155
G1 X103.417 Y96.373 E-.21174
;WIPE_END
G1 E-.04 F2100
G1 Z.6 F720
G1 X103.287 Y110.463 F10800
G1 Z.2 F720
G1 E.8 F2100
M204 S800
;TYPE:Perimeter
;WIDTH:0.419999
G1 F1200
G1 X103.287 Y99.537 E.34257
G1 X146.713 Y99.537 E1.36158
G1 X146.713 Y110.463 E.34257
G1 X103.347 Y110.463 E1.3597
M204 S1000
G1 X102.91 Y110.84 F10800
M204 S800
;TYPE:External perimeter
M73 Q2 S16
G1 F1200
G1 X102.91 Y99.16 E.36622
G1 X147.09 Y99.16 E1.38523
M73 P2 R16
G1 X147.09 Y110.84 E.36622
G1 X102.97 Y110.84 E1.38335
M204 S1000
G1 X103.079 Y110.478 F10800
;WIPE_START
G1 F8640
G1 X102.953 Y107.549 E-.76
;WIPE_END
G1 E-.04 F2100
G1 Z.6 F720
G1 X145.836 Y99.65 F10800
G1 Z.2 F720
M73 P2 R15
G1 E.8 F2100
M204 S800
;TYPE:Solid infill
;WIDTH:0.420799
G1 F1200
G1 X146.43 Y100.244 E.02641
G1 X146.43 Y100.779 E.01679
G1 X145.471 Y99.82 E.04261
G1 X144.937 Y99.82 E.01679
G1 X146.43 Y101.313 E.06636
G1 X146.43 Y101.848 E.01679
G1 X144.402 Y99.82 E.09011
G1 X143.868 Y99.82 E.01679
G1 X146.43 Y102.382 E.11385
G1 X146.43 Y102.916 E.01679
G1 X143.334 Y99.82 E.1376
G1 X142.799 Y99.82 E.01679
G1 X146.43 Y103.451 E.16135
G1 X146.43 Y103.985 E.01679
G1 X142.265 Y99.82 E.18509
G1 X141.73 Y99.82 E.01679
G1 X146.43 Y104.52 E.20884
G1 X146.43 Y105.054 E.01679
G1 X141.196 Y99.82 E.23259
G1 X140.662 Y99.82 E.01679
G1 X146.43 Y105.588 E.25633
G1 X146.43 Y106.123 E.01679
G1 X140.127 Y99.82 E.28008
G1 X139.593 Y99.82 E.01679
M73 Q3 S15
G1 X146.43 Y106.657 E.30383
G1 X146.43 Y107.192 E.01679
M73 P3 R15
G1 X139.058 Y99.82 E.32757
G1 X138.524 Y99.82 E.01679
G1 X146.43 Y107.726 E.35132
G1 X146.43 Y108.26 E.01679
G1 X137.99 Y99.82 E.37506
G1 X137.455 Y99.82 E.01679
G1 X146.43 Y108.795 E.39881
G1 X146.43 Y109.329 E.01679
G1 X136.921 Y99.82 E.42256
G1 X136.386 Y99.82 E.01679
G1 X146.43 Y109.864 E.4463
G1 X146.43 Y110.18 E.00994
G1 X146.212 Y110.18 E.00685
G1 X135.852 Y99.82 E.46036
G1 X135.317 Y99.82 E.01679
G1 X145.678 Y110.18 E.46036
G1 X145.143 Y110.18 E.01679
G1 X134.783 Y99.82 E.46036
G1 X134.249 Y99.82 E.01679
G1 X144.609 Y110.18 E.46036
G1 X144.075 Y110.18 E.01679
G1 X133.714 Y99.82 E.46036
G1 X133.18 Y99.82 E.01679
G1 X143.54 Y110.18 E.46036
G1 X143.006 Y110.18 E.01679
G1 X132.645 Y99.82 E.46036
G1 X132.111 Y99.82 E.01679
M73 Q4 S15
G1 X142.471 Y110.18 E.46036
G1 X141.937 Y110.18 E.01679
M73 P4 R15
G1 X131.577 Y99.82 E.46036
G1 X131.042 Y99.82 E.01679
G1 X141.403 Y110.18 E.46036
G1 X140.868 Y110.18 E.01679
G1 X130.508 Y99.82 E.46036
G1 X129.973 Y99.82 E.01679
G1 X140.334 Y110.18 E.46036
G1 X139.799 Y110.18 E.01679
G1 X129.439 Y99.82 E.46036
G1 X128.905 Y99.82 E.01679
G1 X139.265 Y110.18 E.46036
G1 X138.731 Y110.18 E.01679
G1 X128.37 Y99.82 E.46036
G1 X127.836 Y99.82 E.01679
G1 X138.196 Y110.18 E.46036
G1 X137.662 Y110.18 E.01679
G1 X127.301 Y99.82 E.46036
G1 X126.767 Y99.82 E.01679
G1 X137.127 Y110.18 E.46036
G1 X136.593 Y110.18 E.01679
G1 X126.233 Y99.82 E.46036
G1 X125.698 Y99.82 E.01679
G1 X136.059 Y110.18 E.46036
G1 X135.524 Y110.18 E.01679
M73 Q5 S15
G1 X125.164 Y99.82 E.46036
M73 P5 R15
G1 X124.629 Y99.82 E.01679
G1 X134.99 Y110.18 E.46036
G1 X134.455 Y110.18 E.01679
G1 X124.095 Y99.82 E.46036
G1 X123.561 Y99.82 E.01679
G1 X133.921 Y110.18 E.46036
G1 X133.387 Y110.18 E.01679
G1 X123.026 Y99.82 E.46036
G1 X122.492 Y99.82 E.01679
G1 X132.852 Y110.18 E.46036
G1 X132.318 Y110.18 E.01679
G1 X121.957 Y99.82 E.46036
G1 X121.423 Y99.82 E.01679
G1 X131.783 Y110.18 E.46036
G1 X131.249 Y110.18 E.01679
G1 X120.889 Y99.82 E.46036
G1 X120.354 Y99.82 E.01679
G1 X130.714 Y110.18 E.46036
G1 X130.18 Y110.18 E.01679
G1 X119.82 Y99.82 E.46036
G1 X119.285 Y99.82 E.01679
G1 X129.646 Y110.18 E.46036
G1 X129.111 Y110.18 E.01679
G1 X118.751 Y99.82 E.46036
G1 X118.217 Y99.82 E.01679
M73 P6 R15
M73 Q6 S15
G1 X128.577 Y110.18 E.46036
G1 X128.042 Y110.18 E.01679
G1 X117.682 Y99.82 E.46036
G1 X117.148 Y99.82 E.01679
G1 X127.508 Y110.18 E.46036
G1 X126.974 Y110.18 E.01679
G1 X116.613 Y99.82 E.46036
G1 X116.079 Y99.82 E.01679
G1 X126.439 Y110.18 E.46036
G1 X125.905 Y110.18 E.01679
G1 X115.545 Y99.82 E.46036
G1 X115.01 Y99.82 E.01679
G1 X125.37 Y110.18 E.46036
G1 X124.836 Y110.18 E.01679
G1 X114.476 Y99.82 E.46036
G1 X113.941 Y99.82 E.01679
G1 X124.302 Y110.18 E.46036
G1 X123.767 Y110.18 E.01679
G1 X113.407 Y99.82 E.46036
G1 X112.873 Y99.82 E.01679
G1 X123.233 Y110.18 E.46036
G1 X122.698 Y110.18 E.01679
G1 X112.338 Y99.82 E.46036
G1 X111.804 Y99.82 E.01679
G1 X122.164 Y110.18 E.46036
G1 X121.63 Y110.18 E.01679
M73 P7 R15
M73 Q7 S15
G1 X111.269 Y99.82 E.46036
G1 X110.735 Y99.82 E.01679
G1 X121.095 Y110.18 E.46036
G1 X120.561 Y110.18 E.01679
G1 X110.201 Y99.82 E.46036
G1 X109.666 Y99.82 E.01679
G1 X120.026 Y110.18 E.46036
G1 X119.492 Y110.18 E.01679
G1 X109.132 Y99.82 E.46036
G1 X108.597 Y99.82 E.01679
G1 X118.958 Y110.18 E.46036
G1 X118.423 Y110.18 E.01679
G1 X108.063 Y99.82 E.46036
G1 X107.529 Y99.82 E.01679
G1 X117.889 Y110.18 E.46036
G1 X117.354 Y110.18 E.01679
G1 X106.994 Y99.82 E.46036
G1 X106.46 Y99.82 E.01679
G1 X116.82 Y110.18 E.46036
G1 X116.286 Y110.18 E.01679
G1 X105.925 Y99.82 E.46036
G1 X105.391 Y99.82 E.01679
G1 X115.751 Y110.18 E.46036
G1 X115.217 Y110.18 E.01679
G1 X104.857 Y99.82 E.46036
M73 Q8 S15
G1 X104.322 Y99.82 E.01679
M73 P8 R15
G1 X114.682 Y110.18 E.46036
G1 X114.148 Y110.18 E.01679
G1 X103.788 Y99.82 E.46036
G1 X103.57 Y99.82 E.00685
G1 X103.57 Y100.136 E.00994
G1 X113.614 Y110.18 E.4463
G1 X113.079 Y110.18 E.01679
G1 X103.57 Y100.671 E.42256
G1 X103.57 Y101.205 E.01679
G1 X112.545 Y110.18 E.39881
G1 X112.01 Y110.18 E.01679
G1 X103.57 Y101.74 E.37506
G1 X103.57 Y102.274 E.01679
G1 X111.476 Y110.18 E.35132
G1 X110.942 Y110.18 E.01679
G1 X103.57 Y102.808 E.32757
G1 X103.57 Y103.343 E.01679
G1 X110.407 Y110.18 E.30382
G1 X109.873 Y110.18 E.01679
G1 X103.57 Y103.877 E.28008
G1 X103.57 Y104.412 E.01679
M73 P8 R14
G1 X109.338 Y110.18 E.25633
G1 X108.804 Y110.18 E.01679
G1 X103.57 Y104.946 E.23258
G1 X103.57 Y105.48 E.01679
G1 X108.27 Y110.18 E.20884
G1 X107.735 Y110.18 E.01679
G1 X103.57 Y106.015 E.18509
G1 X103.57 Y106.549 E.01679
G1 X107.201 Y110.18 E.16134
G1 X106.666 Y110.18 E.01679
G1 X103.57 Y107.084 E.1376
G1 X103.57 Y107.618 E.01679
G1 X106.132 Y110.18 E.11385
G1 X105.598 Y110.18 E.01679
G1 X103.57 Y108.152 E.0901
G1 X103.57 Y108.687 E.01679
G1 X105.063 Y110.18 E.06636
G1 X104.529 Y110.18 E.01679
M73 Q9 S15
G1 X103.57 Y109.221 E.04261
G1 X103.57 Y109.756 E.01679
M73 P9 R14
G1 X104.164 Y110.35 E.02641
M204 S1000
; stop printing object Sacred Geometries - Button Guide.stl id:0 copy 0
M106 S84.15
;LAYER_CHANGE
;Z:0.4
;HEIGHT:0.2
;BEFORE_LAYER_CHANGE
G92 E0.0
;0.4


;WIPE_START
G1 F8640
G1 X103.57 Y109.756 E-.19404
G1 X103.57 Y109.221 E-.12339
G1 X104.529 Y110.18 E-.31314
G1 X105.063 Y110.18 E-.12339
G1 X105.045 Y110.162 E-.00603
;WIPE_END
G1 E-.04 F2100
G1 Z.6 F720
;AFTER_LAYER_CHANGE
;0.4
G1 X105.045 Y113.627 F10800
G1 Z.4 F720
G1 E.8 F2100
;TYPE:Skirt/Brim
;WIDTH:0.42
G1 F3000
G1 X102.5 Y113.627 E.07979
G1 X101.193 Y113.235 E.04278
M73 Q9 S14
G1 X100.317 Y112.19 E.04278
G1 X100.123 Y111.25 E.03008
G1 X100.123 Y98.75 E.39193
G1 X100.515 Y97.443 E.04278
G1 X101.56 Y96.567 E.04278
G1 X102.5 Y96.373 E.03008
G1 X147.5 Y96.373 E1.41094
G1 X148.807 Y96.765 E.04278
G1 X149.683 Y97.81 E.04278
G1 X149.877 Y98.75 E.03008
G1 X149.877 Y111.25 E.39193
G1 X149.485 Y112.557 E.04278
G1 X148.44 Y113.433 E.04278
G1 X147.5 Y113.627 E.03008
G1 X105.105 Y113.627 E1.32927
; printing object Sacred Geometries - Button Guide.stl id:0 copy 0
;WIPE_START
G1 F8640
G1 X102.5 Y113.627 E-.60145
G1 X101.842 Y113.43 E-.15855
;WIPE_END
G1 E-.04 F2100
G1 Z.8 F720
G1 X103.132 Y110.618 F10800
G1 Z.4 F720
G1 E.8 F2100
M204 S800
;TYPE:Perimeter
;WIDTH:0.449999
G1 F2700
G1 X103.132 Y99.382 E.38032
G1 X146.868 Y99.382 E1.4804
G1 X146.868 Y110.618 E.38032
G1 X103.192 Y110.618 E1.47837
M204 S1000
G1 X102.725 Y111.025 F10800
M204 S800
;TYPE:External perimeter
G1 F1500
G1 X102.725 Y98.975 E.40788
G1 X147.275 Y98.975 E1.50796
G1 X147.275 Y111.025 E.40788
G1 X102.785 Y111.025 E1.50593
M204 S1000
G1 X102.894 Y110.662 F10800
;WIPE_START
M73 P10 R14
M73 Q10 S14
G1 F8640
G1 X102.769 Y107.734 E-.76
;WIPE_END
G1 E-.04 F2100
G1 Z.8 F720
G1 X146.746 Y109.666 F10800
G1 Z.4 F720
G1 E.8 F2100
;TYPE:Solid infill
;WIDTH:0.453377
G1 F4800
G1 X146.099 Y110.313 E.03122
G1 X145.518 Y110.313 E.01981
G1 X146.563 Y109.268 E.0504
G1 X146.563 Y108.688 E.01981
G1 X144.938 Y110.313 E.07842
G1 X144.357 Y110.313 E.01981
G1 X146.563 Y108.107 E.10643
G1 X146.563 Y107.527 E.01981
G1 X143.777 Y110.313 E.13445
G1 X143.197 Y110.313 E.01981
G1 X146.563 Y106.947 E.16247
G1 X146.563 Y106.366 E.01981
G1 X142.616 Y110.313 E.19049
G1 X142.036 Y110.313 E.01981
G1 X146.563 Y105.786 E.2185
G1 X146.563 Y105.205 E.01981
G1 X141.455 Y110.313 E.24652
G1 X140.875 Y110.313 E.01981
G1 X146.563 Y104.625 E.27454
G1 X146.563 Y104.044 E.01981
G1 X140.294 Y110.313 E.30256
G1 X139.714 Y110.313 E.01981
G1 X146.563 Y103.464 E.33057
G1 X146.563 Y102.883 E.01981
G1 X139.133 Y110.313 E.35859
G1 X138.553 Y110.313 E.01981
G1 X146.563 Y102.303 E.38661
G1 X146.563 Y101.722 E.01981
G1 X137.972 Y110.313 E.41463
G1 X137.392 Y110.313 E.01981
G1 X146.563 Y101.142 E.44264
G1 X146.563 Y100.561 E.01981
G1 X136.811 Y110.313 E.47066
G1 X136.231 Y110.313 E.01981
G1 X146.563 Y99.981 E.49868
G1 X146.563 Y99.687 E.01002
G1 X146.276 Y99.687 E.0098
G1 X135.65 Y110.313 E.51284
G1 X135.07 Y110.313 E.01981
G1 X145.695 Y99.687 E.51284
G1 X145.115 Y99.687 E.01981
G1 X134.489 Y110.313 E.51284
G1 X133.909 Y110.313 E.01981
G1 X144.534 Y99.687 E.51284
G1 X143.954 Y99.687 E.01981
G1 X133.328 Y110.313 E.51284
G1 X132.748 Y110.313 E.01981
G1 X143.373 Y99.687 E.51284
G1 X142.793 Y99.687 E.01981
G1 X132.168 Y110.313 E.51284
G1 X131.587 Y110.313 E.01981
G1 X142.212 Y99.687 E.51284
G1 X141.632 Y99.687 E.01981
G1 X131.007 Y110.313 E.51284
G1 X130.426 Y110.313 E.01981
G1 X141.051 Y99.687 E.51284
G1 X140.471 Y99.687 E.01981
G1 X129.846 Y110.313 E.51284
G1 X129.265 Y110.313 E.01981
G1 X139.89 Y99.687 E.51284
G1 X139.31 Y99.687 E.01981
G1 X128.685 Y110.313 E.51284
G1 X128.104 Y110.313 E.01981
G1 X138.729 Y99.687 E.51284
G1 X138.149 Y99.687 E.01981
G1 X127.524 Y110.313 E.51284
G1 X126.943 Y110.313 E.01981
G1 X137.569 Y99.687 E.51284
G1 X136.988 Y99.687 E.01981
M73 Q11 S14
G1 X126.363 Y110.313 E.51284
G1 X125.782 Y110.313 E.01981
M73 P11 R14
G1 X136.408 Y99.687 E.51284
G1 X135.827 Y99.687 E.01981
G1 X125.202 Y110.313 E.51284
G1 X124.621 Y110.313 E.01981
G1 X135.247 Y99.687 E.51284
G1 X134.666 Y99.687 E.01981
G1 X124.041 Y110.313 E.51284
G1 X123.46 Y110.313 E.01981
G1 X134.086 Y99.687 E.51284
G1 X133.505 Y99.687 E.01981
G1 X122.88 Y110.313 E.51284
G1 X122.299 Y110.313 E.01981
G1 X132.925 Y99.687 E.51284
G1 X132.344 Y99.687 E.01981
G1 X121.719 Y110.313 E.51284
G1 X121.139 Y110.313 E.01981
G1 X131.764 Y99.687 E.51284
G1 X131.183 Y99.687 E.01981
G1 X120.558 Y110.313 E.51284
G1 X119.978 Y110.313 E.01981
G1 X130.603 Y99.687 E.51284
G1 X130.022 Y99.687 E.01981
G1 X119.397 Y110.313 E.51284
G1 X118.817 Y110.313 E.01981
G1 X129.442 Y99.687 E.51284
G1 X128.861 Y99.687 E.01981
G1 X118.236 Y110.313 E.51284
G1 X117.656 Y110.313 E.01981
G1 X128.281 Y99.687 E.51284
G1 X127.7 Y99.687 E.01981
G1 X117.075 Y110.313 E.51284
G1 X116.495 Y110.313 E.01981
G1 X127.12 Y99.687 E.51284
G1 X126.539 Y99.687 E.01981
G1 X115.914 Y110.313 E.51284
G1 X115.334 Y110.313 E.01981
G1 X125.959 Y99.687 E.51284
G1 X125.379 Y99.687 E.01981
G1 X114.753 Y110.313 E.51284
G1 X114.173 Y110.313 E.01981
G1 X124.798 Y99.687 E.51284
G1 X124.218 Y99.687 E.01981
G1 X113.592 Y110.313 E.51284
G1 X113.012 Y110.313 E.01981
G1 X123.637 Y99.687 E.51284
G1 X123.057 Y99.687 E.01981
G1 X112.431 Y110.313 E.51284
G1 X111.851 Y110.313 E.01981
G1 X122.476 Y99.687 E.51284
G1 X121.896 Y99.687 E.01981
G1 X111.27 Y110.313 E.51284
G1 X110.69 Y110.313 E.01981
G1 X121.315 Y99.687 E.51284
G1 X120.735 Y99.687 E.01981
G1 X110.11 Y110.313 E.51284
G1 X109.529 Y110.313 E.01981
G1 X120.154 Y99.687 E.51284
G1 X119.574 Y99.687 E.01981
G1 X108.949 Y110.313 E.51284
G1 X108.368 Y110.313 E.01981
G1 X118.993 Y99.687 E.51284
G1 X118.413 Y99.687 E.01981
G1 X107.788 Y110.313 E.51284
G1 X107.207 Y110.313 E.01981
G1 X117.832 Y99.687 E.51284
G1 X117.252 Y99.687 E.01981
G1 X106.627 Y110.313 E.51284
G1 X106.046 Y110.313 E.01981
M73 Q12 S14
G1 X116.671 Y99.687 E.51284
G1 X116.091 Y99.687 E.01981
M73 P12 R14
G1 X105.466 Y110.313 E.51284
G1 X104.885 Y110.313 E.01981
G1 X115.51 Y99.687 E.51284
G1 X114.93 Y99.687 E.01981
G1 X104.305 Y110.313 E.51284
G1 X103.724 Y110.313 E.01981
G1 X114.35 Y99.687 E.51284
G1 X113.769 Y99.687 E.01981
G1 X103.437 Y110.019 E.49868
G1 X103.437 Y109.439 E.01981
G1 X113.189 Y99.687 E.47066
G1 X112.608 Y99.687 E.01981
G1 X103.437 Y108.858 E.44264
G1 X103.437 Y108.278 E.01981
G1 X112.028 Y99.687 E.41462
G1 X111.447 Y99.687 E.01981
G1 X103.437 Y107.697 E.38661
G1 X103.437 Y107.117 E.01981
G1 X110.867 Y99.687 E.35859
G1 X110.286 Y99.687 E.01981
G1 X103.437 Y106.536 E.33057
G1 X103.437 Y105.956 E.01981
G1 X109.706 Y99.687 E.30255
G1 X109.125 Y99.687 E.01981
G1 X103.437 Y105.375 E.27454
G1 X103.437 Y104.795 E.01981
G1 X108.545 Y99.687 E.24652
G1 X107.964 Y99.687 E.01981
G1 X103.437 Y104.214 E.2185
G1 X103.437 Y103.634 E.01981
G1 X107.384 Y99.687 E.19048
G1 X106.803 Y99.687 E.01981
G1 X103.437 Y103.053 E.16247
G1 X103.437 Y102.473 E.01981
G1 X106.223 Y99.687 E.13445
G1 X105.642 Y99.687 E.01981
G1 X103.437 Y101.892 E.10643
G1 X103.437 Y101.312 E.01981
G1 X105.062 Y99.687 E.07841
G1 X104.481 Y99.687 E.01981
G1 X103.437 Y100.731 E.0504
G1 X103.437 Y100.151 E.01981
G1 X104.084 Y99.504 E.03122
; stop printing object Sacred Geometries - Button Guide.stl id:0 copy 0
M106 S170.85
;LAYER_CHANGE
;Z:0.6
;HEIGHT:0.2
;BEFORE_LAYER_CHANGE
G92 E0.0
;0.6


;WIPE_START
G1 F8640
G1 X103.437 Y100.151 E-.21121
