; generated by PrusaSlicer 2.5.0+win64 on 2023-02-05 at 17:38:04 UTC


;
;
; 

; external perimeters extrusion width = 0.45mm
; perimeters extrusion width = 0.45mm
; infill extrusion width = 0.45mm
; solid infill extrusion width = 0.45mm
; top infill extrusion width = 0.40mm
; first layer extrusion width = 0.42mm

M73 P0 R16
M73 Q0 S16
M201 X1000 Y1000 Z200 E5000 ; sets maximum accelerations, mm/sec^2
M203 X200 Y200 Z12 E120 ; sets maximum feedrates, mm / sec
M204 P1250 R1250 T1250 ; sets acceleration (P, T) and retract acceleration (R), mm/sec^2
M205 X8.00 Y8.00 Z0.40 E4.50 ; sets the jerk limits, mm/sec
M205 S0 T0 ; sets the minimum extruding and travel feed rate, mm/sec
M107
;TYPE:Custom
M862.3 P "MK3S" ; printer model check
M862.1 P0.4 ; nozzle diameter check
M115 U3.11.0 ; tell printer latest fw version
G90 ; use absolute coordinates
M83 ; extruder relative mode
M104 S215 ; set extruder temp
M140 S60 ; set bed temp
M190 S60 ; wait for bed temp
M109 S215 ; wait for extruder temp
G28 W ; home all without mesh bed level
G80 ; mesh bed leveling

G1 Z0.2 F720
G1 Y-3 F1000 ; go outside print area
G92 E0
G1 X60 E9 F1000 ; intro line
G1 X100 E12.5 F1000 ; intro line

G92 E0
M221 S95

; Don't change E values below. Excessive value can damage the printer.
M907 E430 ; set extruder motor current
G21 ; set units to millimeters
G90 ; use absolute coordinates
M83 ; use relative distances for extrusion
M900 K0.05 ; Filament gcode LA 1.5
M900 K30 ; Filament gcode LA 1.0
M107
;LAYER_CHANGE
;Z:0.2
;HEIGHT:0.2
;BEFORE_LAYER_CHANGE
G92 E0.0
;0.2


G1 E-.8 F2100
G1 Z.4 F720
;AFTER_LAYER_CHANGE
;0.2
G1 X120.553 Y91.476 F10800
G1 Z.2 F720
G1 E.8 F2100
M204 S800
;TYPE:Skirt/Brim
;WIDTH:0.42
G1 F1200
G1 X121.553 Y90.476 E.04434
G1 X123.5 Y89.67 E.06609
G1 X126.5 Y89.67 E.09406
G1 X128.447 Y90.476 E.06609
G1 X129.447 Y91.476 E.04434
G1 X130.089 Y92.484 E.03745
G1 X135.589 Y107.636 E.50541
G1 X135.754 Y108.576 E.02992
G1 X135.754 Y115.463 E.21595
G1 X135.668 Y116.318 E.02693
G1 X135.44 Y117.132 E.02652
G1 X134.84 Y118.261 E.04009
G1 X133.948 Y119.216 E.04096
G1 X132.855 Y119.893 E.04033
G1 X131.624 Y120.265 E.04032
G1 X130.827 Y120.33 E.02505
G1 X119.113 Y120.33 E.3673
G1 X118.27 Y120.246 E.02654
M73 Q1 S16
G1 X117.451 Y120.019 E.02666
G1 X116.475 Y119.526 E.03429
G1 X115.589 Y118.784 E.03625
G1 X114.887 Y117.833 E.03705
M73 P1 R16
G1 X114.432 Y116.743 E.03704
G1 X114.247 Y115.47 E.04032
G1 X114.246 Y108.576 E.21616
G1 X114.411 Y107.636 E.02992
G1 X119.911 Y92.484 E.50541
G1 X120.52 Y91.527 E.03557
M204 S1000
G1 X120.819 Y91.743 F10800
M204 S800
G1 F1200
G1 X121.819 Y90.743 E.04434
G1 X123.5 Y90.047 E.05704
G1 X126.5 Y90.047 E.09406
G1 X128.181 Y90.743 E.05704
G1 X129.181 Y91.743 E.04434
G1 X129.734 Y92.613 E.03233
G1 X135.234 Y107.765 E.50541
G1 X135.377 Y108.576 E.02582
G1 X135.377 Y115.455 E.21569
G1 X135.298 Y116.244 E.02486
G1 X135.088 Y116.997 E.02449
G1 X134.535 Y118.04 E.03702
G1 X133.712 Y118.922 E.03783
G1 X132.703 Y119.548 E.03724
G1 X131.482 Y119.905 E.03989
G1 X119.121 Y119.953 E.38757
G1 X118.343 Y119.876 E.0245
G1 X117.586 Y119.667 E.02462
G1 X116.611 Y119.163 E.03444
G1 X115.784 Y118.438 E.03447
G1 X115.171 Y117.567 E.03339
G1 X114.765 Y116.531 E.03491
G1 X114.624 Y115.461 E.03383
G1 X114.623 Y108.576 E.21587
G1 X114.766 Y107.765 E.02582
G1 X120.266 Y92.613 E.50541
G1 X120.787 Y91.794 E.03045
M204 S1000
; printing object Sacred Geometries - Button Lever (Print 3).stl id:0 copy 2
;WIPE_START
G1 F8640
G1 X121.819 Y90.743 E-.34008
G1 X123.499 Y90.047 E-.41992
;WIPE_END
G1 E-.04 F2100
G1 Z.6 F720
G1 X126.174 Y93.211 F10800
G1 Z.2 F720
G1 E.8 F2100
M204 S800
;TYPE:Perimeter
;WIDTH:0.419999
G1 F1200
G1 X126.713 Y93.75 E.0239
G1 X126.713 Y100.112 E.19948
G1 X126.66 Y100.615 E.01584
G1 X126.475 Y101.006 E.01357
G1 X126.169 Y101.348 E.0144
G1 X125.799 Y101.546 E.01317
G1 X125.368 Y101.635 E.01377
G1 X124.763 Y101.635 E.01897
G1 X124.327 Y101.588 E.01375
G1 X123.926 Y101.412 E.01374
G1 X123.655 Y101.184 E.0111
G1 X123.452 Y100.894 E.01111
G1 X123.366 Y100.642 E.00835
G1 X123.287 Y100.223 E.01335
G1 X123.287 Y93.75 E.20297
G1 X123.826 Y93.211 E.0239
G1 X126.114 Y93.211 E.07174
M204 S1000
G1 X126.33 Y92.834 F10800
M204 S800
;TYPE:External perimeter
G1 F1200
G1 X127.09 Y93.594 E.03369
G1 X127.09 Y100.112 E.20437
G1 X127.028 Y100.709 E.01881
G1 X126.89 Y101.065 E.01197
G1 X126.677 Y101.383 E.01203
G1 X126.4 Y101.649 E.01203
G1 X125.928 Y101.901 E.01678
G1 X125.397 Y102.012 E.01699
G1 X124.743 Y102.012 E.02052
G1 X124.221 Y101.953 E.01647
G1 X123.725 Y101.735 E.01698
G1 X123.374 Y101.441 E.01435
G1 X123.112 Y101.066 E.01435
G1 X122.937 Y100.553 E.017
G1 X122.91 Y100.24 E.00985
G1 X122.91 Y93.594 E.20838
G1 X123.67 Y92.834 E.03369
G1 X126.27 Y92.834 E.08153
M204 S1000
G1 X126.359 Y93.233 F10800
;WIPE_START
G1 F8640
G1 X127.09 Y93.594 E-.2581
G1 X127.09 Y95.767 E-.5019
;WIPE_END
G1 E-.04 F2100
G1 Z.6 F720
G1 X126.6 Y94.039 F10800
G1 Z.2 F720
G1 E.8 F2100
M204 S800
;TYPE:Solid infill
;WIDTH:0.423436
G1 F1200
G1 X126.054 Y93.494 E.02441
G1 X125.516 Y93.494 E.01703
G1 X126.43 Y94.408 E.04089
G1 X126.43 Y94.946 E.01703
G1 X124.978 Y93.494 E.06497
G1 X124.44 Y93.494 E.01703
G1 X126.43 Y95.484 E.08905
G1 X126.43 Y96.022 E.01703
G1 X123.922 Y93.515 E.11221
G1 X123.653 Y93.784 E.01204
G1 X126.43 Y96.56 E.12425
G1 X126.43 Y97.098 E.01703
M73 Q2 S16
G1 X123.57 Y94.238 E.12798
G1 X123.57 Y94.776 E.01703
M73 P2 R16
G1 X126.43 Y97.637 E.12798
G1 X126.43 Y98.175 E.01703
G1 X123.57 Y95.314 E.12798
G1 X123.57 Y95.853 E.01703
G1 X126.43 Y98.713 E.12798
G1 X126.43 Y99.251 E.01703
G1 X123.57 Y96.391 E.12798
G1 X123.57 Y96.929 E.01703
G1 X126.43 Y99.789 E.12798
G1 X126.43 Y100.193 E.01278
G1 X126.415 Y100.312 E.00379
G1 X123.57 Y97.467 E.12729
G1 X123.57 Y98.005 E.01703
G1 X126.307 Y100.742 E.12247
G1 X126.168 Y100.957 E.00809
G1 X126.074 Y101.047 E.00413
G1 X123.57 Y98.543 E.11204
G1 X123.57 Y99.081 E.01703
G1 X125.751 Y101.263 E.0976
G1 X125.621 Y101.31 E.00439
G1 X125.303 Y101.352 E.01016
G1 X123.57 Y99.619 E.07753
G1 X123.57 Y100.158 E.01703
G1 X124.764 Y101.352 E.05345
G1 X124.407 Y101.314 E.01137
G1 X124.077 Y101.169 E.01141
G1 X123.867 Y100.993 E.00867
G1 X123.47 Y100.596 E.01778
M204 S1000
; stop printing object Sacred Geometries - Button Lever (Print 3).stl id:0 copy 2
; printing object Sacred Geometries - Button Lever (Print 3).stl id:0 copy 0
;WIPE_START
G1 F8640
G1 X123.867 Y100.993 E-.12975
G1 X124.077 Y101.169 E-.06326
G1 X124.407 Y101.314 E-.08326
G1 X124.764 Y101.352 E-.08299
G1 X123.57 Y100.158 E-.39008
G1 X123.57 Y100.111 E-.01066
;WIPE_END
G1 E-.04 F2100
G1 Z.6 F720
G1 X120.674 Y108.363 F10800
G1 Z.2 F720
G1 E.8 F2100
M204 S800
;TYPE:Perimeter
;WIDTH:0.419999
G1 F1200
G1 X121.213 Y108.902 E.0239
G1 X121.213 Y115.264 E.19948
G1 X121.16 Y115.767 E.01584
G1 X120.975 Y116.158 E.01357
G1 X120.669 Y116.5 E.0144
G1 X120.299 Y116.698 E.01317
G1 X119.868 Y116.787 E.01377
G1 X119.263 Y116.787 E.01897
G1 X118.827 Y116.74 E.01375
G1 X118.426 Y116.564 E.01374
G1 X118.155 Y116.336 E.0111
G1 X117.952 Y116.046 E.01111
G1 X117.866 Y115.794 E.00835
G1 X117.787 Y115.375 E.01335
G1 X117.787 Y108.902 E.20297
G1 X118.326 Y108.363 E.0239
G1 X120.614 Y108.363 E.07174
M204 S1000
G1 X120.83 Y107.986 F10800
M204 S800
;TYPE:External perimeter
G1 F1200
G1 X121.59 Y108.746 E.03369
G1 X121.59 Y115.264 E.20437
G1 X121.528 Y115.861 E.01881
G1 X121.39 Y116.217 E.01197
G1 X121.177 Y116.535 E.01203
G1 X120.9 Y116.801 E.01203
G1 X120.428 Y117.053 E.01678
G1 X119.897 Y117.164 E.01699
G1 X119.243 Y117.164 E.02052
G1 X118.721 Y117.105 E.01647
G1 X118.225 Y116.887 E.01698
G1 X117.874 Y116.593 E.01435
G1 X117.612 Y116.218 E.01435
G1 X117.437 Y115.705 E.017
G1 X117.41 Y115.392 E.00985
G1 X117.41 Y108.746 E.20838
G1 X118.17 Y107.986 E.03369
G1 X120.77 Y107.986 E.08153
M204 S1000
G1 X120.859 Y108.385 F10800
;WIPE_START
G1 F8640
G1 X121.59 Y108.746 E-.2581
G1 X121.59 Y110.919 E-.5019
;WIPE_END
G1 E-.04 F2100
G1 Z.6 F720
G1 X121.1 Y109.191 F10800
G1 Z.2 F720
G1 E.8 F2100
M204 S800
;TYPE:Solid infill
;WIDTH:0.423436
G1 F1200
G1 X120.554 Y108.646 E.02441
G1 X120.016 Y108.646 E.01703
G1 X120.93 Y109.56 E.04089
G1 X120.93 Y110.098 E.01703
G1 X119.478 Y108.646 E.06497
G1 X118.94 Y108.646 E.01703
G1 X120.93 Y110.636 E.08905
G1 X120.93 Y111.174 E.01703
G1 X118.422 Y108.667 E.11221
G1 X118.153 Y108.936 E.01204
G1 X120.93 Y111.712 E.12425
G1 X120.93 Y112.25 E.01703
G1 X118.07 Y109.39 E.12798
G1 X118.07 Y109.928 E.01703
G1 X120.93 Y112.789 E.12798
G1 X120.93 Y113.327 E.01703
G1 X118.07 Y110.466 E.12798
G1 X118.07 Y111.005 E.01703
G1 X120.93 Y113.865 E.12798
G1 X120.93 Y114.403 E.01703
G1 X118.07 Y111.543 E.12798
G1 X118.07 Y112.081 E.01703
G1 X120.93 Y114.941 E.12798
G1 X120.93 Y115.345 E.01278
G1 X120.915 Y115.464 E.00379
G1 X118.07 Y112.619 E.12729
G1 X118.07 Y113.157 E.01703
G1 X120.807 Y115.894 E.12247
G1 X120.668 Y116.109 E.00809
G1 X120.574 Y116.199 E.00413
G1 X118.07 Y113.695 E.11204
G1 X118.07 Y114.233 E.01703
G1 X120.251 Y116.415 E.0976
G1 X120.121 Y116.462 E.00439
G1 X119.803 Y116.504 E.01016
G1 X118.07 Y114.772 E.07753
G1 X118.07 Y115.31 E.01703
G1 X119.264 Y116.504 E.05345
G1 X118.907 Y116.466 E.01137
G1 X118.577 Y116.321 E.01141
G1 X118.367 Y116.145 E.00867
G1 X117.97 Y115.748 E.01778
M204 S1000
; stop printing object Sacred Geometries - Button Lever (Print 3).stl id:0 copy 0
; printing object Sacred Geometries - Button Lever (Print 3).stl id:0 copy 1
;WIPE_START
G1 F8640
G1 X118.367 Y116.145 E-.12975
G1 X118.577 Y116.321 E-.06326
G1 X118.907 Y116.466 E-.08326
G1 X119.264 Y116.504 E-.08299
G1 X118.07 Y115.31 E-.39008
G1 X118.07 Y115.264 E-.01066
;WIPE_END
G1 E-.04 F2100
G1 Z.6 F720
G1 X131.674 Y108.363 F10800
M73 Q3 S16
G1 Z.2 F720
G1 E.8 F2100
M204 S800
;TYPE:Perimeter
;WIDTH:0.419999
M73 P3 R16
G1 F1200
G1 X132.213 Y108.902 E.0239
G1 X132.213 Y115.264 E.19948
G1 X132.16 Y115.767 E.01584
G1 X131.975 Y116.158 E.01357
G1 X131.669 Y116.5 E.0144
G1 X131.299 Y116.698 E.01317
G1 X130.868 Y116.787 E.01377
G1 X130.263 Y116.787 E.01897
G1 X129.827 Y116.74 E.01375
G1 X129.426 Y116.564 E.01374
G1 X129.155 Y116.336 E.0111
G1 X128.952 Y116.046 E.01111
G1 X128.866 Y115.794 E.00835
G1 X128.787 Y115.375 E.01335
G1 X128.787 Y108.902 E.20297
G1 X129.326 Y108.363 E.0239
G1 X131.614 Y108.363 E.07174
M204 S1000
G1 X131.83 Y107.986 F10800
M204 S800
;TYPE:External perimeter
G1 F1200
G1 X132.59 Y108.746 E.03369
G1 X132.59 Y115.264 E.20437
G1 X132.528 Y115.861 E.01881
G1 X132.39 Y116.217 E.01197
G1 X132.177 Y116.535 E.01203
G1 X131.9 Y116.801 E.01203
G1 X131.428 Y117.053 E.01678
G1 X130.897 Y117.164 E.01699
G1 X130.243 Y117.164 E.02052
G1 X129.721 Y117.105 E.01647
G1 X129.225 Y116.887 E.01698
G1 X128.874 Y116.593 E.01435
G1 X128.612 Y116.218 E.01435
G1 X128.437 Y115.705 E.017
G1 X128.41 Y115.392 E.00985
G1 X128.41 Y108.746 E.20838
G1 X129.17 Y107.986 E.03369
G1 X131.77 Y107.986 E.08153
M204 S1000
G1 X131.859 Y108.385 F10800
;WIPE_START
G1 F8640
G1 X132.59 Y108.746 E-.2581
G1 X132.59 Y110.919 E-.5019
;WIPE_END
G1 E-.04 F2100
G1 Z.6 F720
G1 X132.1 Y109.191 F10800
G1 Z.2 F720
G1 E.8 F2100
M204 S800
;TYPE:Solid infill
;WIDTH:0.423436
G1 F1200
G1 X131.554 Y108.646 E.02441
G1 X131.016 Y108.646 E.01703
G1 X131.93 Y109.56 E.04089
G1 X131.93 Y110.098 E.01703
G1 X130.478 Y108.646 E.06497
G1 X129.94 Y108.646 E.01703
G1 X131.93 Y110.636 E.08905
G1 X131.93 Y111.174 E.01703
G1 X129.422 Y108.667 E.11221
G1 X129.153 Y108.936 E.01204
G1 X131.93 Y111.712 E.12425
G1 X131.93 Y112.25 E.01703
G1 X129.07 Y109.39 E.12798
G1 X129.07 Y109.928 E.01703
G1 X131.93 Y112.789 E.12798
G1 X131.93 Y113.327 E.01703
G1 X129.07 Y110.466 E.12798
G1 X129.07 Y111.005 E.01703
G1 X131.93 Y113.865 E.12798
G1 X131.93 Y114.403 E.01703
G1 X129.07 Y111.543 E.12798
G1 X129.07 Y112.081 E.01703
G1 X131.93 Y114.941 E.12798
G1 X131.93 Y115.345 E.01278
G1 X131.915 Y115.464 E.00379
G1 X129.07 Y112.619 E.12729
G1 X129.07 Y113.157 E.01703
G1 X131.807 Y115.894 E.12247
G1 X131.668 Y116.109 E.00809
G1 X131.574 Y116.199 E.00413
G1 X129.07 Y113.695 E.11204
G1 X129.07 Y114.233 E.01703
G1 X131.251 Y116.415 E.0976
G1 X131.121 Y116.462 E.00439
G1 X130.803 Y116.504 E.01016
G1 X129.07 Y114.772 E.07753
G1 X129.07 Y115.31 E.01703
G1 X130.264 Y116.504 E.05345
G1 X129.907 Y116.466 E.01137
G1 X129.577 Y116.321 E.01141
G1 X129.367 Y116.145 E.00867
G1 X128.97 Y115.748 E.01778
M204 S1000
; stop printing object Sacred Geometries - Button Lever (Print 3).stl id:0 copy 1
M106 S84.15
;LAYER_CHANGE
;Z:0.4
;HEIGHT:0.2
;BEFORE_LAYER_CHANGE
G92 E0.0
;0.4


;WIPE_START
G1 F8640
G1 X129.367 Y116.145 E-.12975
G1 X129.577 Y116.321 E-.06326
G1 X129.907 Y116.466 E-.08326
G1 X130.264 Y116.504 E-.08299
G1 X129.07 Y115.31 E-.39008
G1 X129.07 Y115.264 E-.01066
;WIPE_END
G1 E-.04 F2100
G1 Z.6 F720
;AFTER_LAYER_CHANGE
;0.4
G1 X129.07 Y120.33 F10800
G1 Z.4 F720
G1 E.8 F2100
;TYPE:Skirt/Brim
;WIDTH:0.42
G1 F2918
G1 X119.113 Y120.33 E.31219
G1 X118.27 Y120.246 E.02654
G1 X117.451 Y120.019 E.02666
G1 X116.475 Y119.526 E.03429
G1 X115.589 Y118.784 E.03625
G1 X114.887 Y117.833 E.03705
G1 X114.432 Y116.743 E.03704
G1 X114.247 Y115.47 E.04032
G1 X114.246 Y108.576 E.21616
G1 X114.411 Y107.636 E.02992
G1 X119.911 Y92.484 E.50541
G1 X120.553 Y91.476 E.03745
G1 X121.553 Y90.476 E.04434
G1 X123.5 Y89.67 E.06609
G1 X126.5 Y89.67 E.09406
G1 X128.447 Y90.476 E.06609
G1 X129.447 Y91.476 E.04434
G1 X130.089 Y92.484 E.03745
G1 X135.589 Y107.636 E.50541
G1 X135.754 Y108.576 E.02992
G1 X135.754 Y115.463 E.21595
G1 X135.668 Y116.318 E.02693
G1 X135.44 Y117.132 E.02652
G1 X134.84 Y118.261 E.04009
G1 X133.948 Y119.216 E.04096
G1 X132.855 Y119.893 E.04033
G1 X131.624 Y120.265 E.04032
G1 X130.827 Y120.33 E.02505
G1 X129.13 Y120.33 E.05323
G1 X129.128 Y119.914 F10800
G1 F2918
G1 X119.121 Y119.953 E.31377
G1 X118.343 Y119.876 E.0245
G1 X117.586 Y119.667 E.02462
G1 X116.611 Y119.163 E.03444
G1 X115.784 Y118.438 E.03447
G1 X115.171 Y117.567 E.03339
G1 X114.765 Y116.531 E.03491
G1 X114.624 Y115.461 E.03383
G1 X114.623 Y108.576 E.21587
G1 X114.766 Y107.765 E.02582
G1 X120.266 Y92.613 E.50541
G1 X120.819 Y91.743 E.03233
G1 X121.819 Y90.743 E.04434
M73 Q4 S16
G1 X123.5 Y90.047 E.05704
G1 X126.5 Y90.047 E.09406
G1 X128.181 Y90.743 E.05704
G1 X129.181 Y91.743 E.04434
G1 X129.734 Y92.613 E.03233
M73 P4 R16
G1 X135.234 Y107.765 E.50541
G1 X135.377 Y108.576 E.02582
G1 X135.377 Y115.455 E.21569
G1 X135.298 Y116.244 E.02486
G1 X135.088 Y116.997 E.02449
G1 X134.535 Y118.04 E.03702
G1 X133.712 Y118.922 E.03783
G1 X132.703 Y119.548 E.03724
G1 X131.482 Y119.905 E.03989
G1 X129.188 Y119.914 E.07192
; printing object Sacred Geometries - Button Lever (Print 3).stl id:0 copy 2
;WIPE_START
G1 F8640
G1 X125.897 Y119.927 E-.76
;WIPE_END
G1 E-.04 F2100
M73 P4 R15
G1 Z.8 F720
G1 X126.238 Y93.056 F10800
G1 Z.4 F720
G1 E.8 F2100
M204 S800
;TYPE:Perimeter
;WIDTH:0.449999
G1 F1500
G1 X126.868 Y93.686 E.03015
G1 X126.868 Y99.919 E.21099
G1 X126.843 Y100.511 E.02007
G1 X126.667 Y100.986 E.01714
G1 X126.366 Y101.384 E.0169
G1 X125.943 Y101.65 E.0169
G1 X125.599 Y101.755 E.01217
G1 X125.012 Y101.787 E.01988
G1 X124.36 Y101.756 E.02211
G1 X123.9 Y101.577 E.01671
G1 X123.587 Y101.337 E.01334
G1 X123.343 Y101.019 E.01357
G1 X123.19 Y100.649 E.01357
G1 X123.132 Y100.21 E.01496
G1 X123.132 Y93.686 E.22085
G1 X123.762 Y93.056 E.03015
G1 X126.178 Y93.056 E.08179
M204 S1000
M73 Q4 S15
G1 X126.41 Y92.652 F10800
M204 S800
;TYPE:External perimeter
G1 F1500
G1 X127.275 Y93.517 E.0414
G1 X127.275 Y99.919 E.2167
G1 X127.245 Y100.587 E.02263
G1 X127.125 Y100.996 E.01443
G1 X126.922 Y101.368 E.01435
G1 X126.642 Y101.686 E.01435
G1 X126.3 Y101.937 E.01435
G1 X125.913 Y102.108 E.01434
G1 X125.494 Y102.191 E.01446
G1 X124.759 Y102.196 E.02488
G1 X124.258 Y102.153 E.01701
G1 X123.698 Y101.935 E.02034
G1 X123.297 Y101.627 E.01712
G1 X122.988 Y101.224 E.0172
G1 X122.793 Y100.755 E.01719
G1 X122.725 Y100.237 E.01767
G1 X122.725 Y93.517 E.22746
G1 X123.593 Y92.649 E.04156
G1 X126.351 Y92.649 E.09336
M204 S1000
G1 X126.441 Y93.051 F10800
;WIPE_START
G1 F8640
G1 X127.275 Y93.517 E-.29268
G1 X127.275 Y95.541 E-.46732
;WIPE_END
G1 E-.04 F2100
G1 Z.8 F720
