; generated by PrusaSlicer 2.5.0+win64 on 2023-02-07 at 11:24:21 UTC


;
;
; 

; external perimeters extrusion width = 0.45mm
; perimeters extrusion width = 0.45mm
; infill extrusion width = 0.45mm
; solid infill extrusion width = 0.45mm
; top infill extrusion width = 0.40mm
; first layer extrusion width = 0.42mm

M73 P0 R129
M73 Q0 S130
M201 X1000 Y1000 Z200 E5000 ; sets maximum accelerations, mm/sec^2
M203 X200 Y200 Z12 E120 ; sets maximum feedrates, mm / sec
M204 P1250 R1250 T1250 ; sets acceleration (P, T) and retract acceleration (R), mm/sec^2
M205 X8.00 Y8.00 Z0.40 E4.50 ; sets the jerk limits, mm/sec
M205 S0 T0 ; sets the minimum extruding and travel feed rate, mm/sec
M107
;TYPE:Custom
M862.3 P "MK3S" ; printer model check
M862.1 P0.4 ; nozzle diameter check
M115 U3.11.0 ; tell printer latest fw version
G90 ; use absolute coordinates
M83 ; extruder relative mode
M104 S215 ; set extruder temp
M140 S60 ; set bed temp
M190 S60 ; wait for bed temp
M109 S215 ; wait for extruder temp
G28 W ; home all without mesh bed level
G80 ; mesh bed leveling

G1 Z0.2 F720
G1 Y-3 F1000 ; go outside print area
G92 E0
G1 X60 E9 F1000 ; intro line
G1 X100 E12.5 F1000 ; intro line

G92 E0
M221 S95

; Don't change E values below. Excessive value can damage the printer.
M907 E430 ; set extruder motor current
G21 ; set units to millimeters
G90 ; use absolute coordinates
M83 ; use relative distances for extrusion
M900 K0.05 ; Filament gcode LA 1.5
M900 K30 ; Filament gcode LA 1.0
M107
;LAYER_CHANGE
;Z:0.2
;HEIGHT:0.2
;BEFORE_LAYER_CHANGE
G92 E0.0
;0.2


G1 E-.8 F2100
G1 Z.4 F720
;AFTER_LAYER_CHANGE
;0.2
G1 X23.175 Y7.279 F10800
G1 Z.2 F720
G1 E.8 F2100
M204 S800
;TYPE:Skirt/Brim
;WIDTH:0.42
G1 F1200
G1 X23.204 Y7.187 E.00303
G1 X23.812 Y6.033 E.0409
G1 X24.761 Y4.848 E.0476
G1 X25.841 Y3.94 E.04423
G1 X27.169 Y3.211 E.0475
G1 X28.509 Y2.789 E.04404
G1 X30.068 Y2.623 E.04915
G1 X219.982 Y2.623 E5.95463
G1 X221.489 Y2.788 E.04753
M73 P0 R128
G1 X222.813 Y3.204 E.0435
G1 X223.967 Y3.812 E.0409
G1 X225.153 Y4.763 E.04767
G1 X226 Y5.756 E.0409
G1 X226.699 Y6.967 E.04387
G1 X227.188 Y8.405 E.04761
G1 X227.371 Y9.781 E.04353
G1 X227.377 Y199.93 E5.962
G1 X227.254 Y201.274 E.04232
M73 Q0 S129
G1 X226.835 Y202.717 E.0471
G1 X226.188 Y203.967 E.04414
G1 X225.239 Y205.152 E.0476
G1 X224.159 Y206.06 E.04423
G1 X222.831 Y206.789 E.0475
G1 X221.491 Y207.211 E.04404
G1 X219.932 Y207.377 E.04915
G1 X30.018 Y207.377 E5.95463
G1 X28.511 Y207.212 E.04753
G1 X27.187 Y206.796 E.0435
G1 X26.033 Y206.188 E.0409
G1 X24.847 Y205.237 E.04767
G1 X23.946 Y204.167 E.04387
G1 X23.211 Y202.831 E.0478
G1 X22.792 Y201.507 E.04353
G1 X22.623 Y199.932 E.04965
G1 X22.623 Y10.018 E5.95463
G1 X22.788 Y8.511 E.04753
G1 X23.157 Y7.337 E.03859
M204 S1000
; printing object Sacred Geometries - Case Spacer.stl id:0 copy 0
;WIPE_START
G1 F8640
G1 X23.204 Y7.187 E-.03614
G1 X23.812 Y6.033 E-.30118
G1 X24.761 Y4.848 E-.35058
G1 X25 Y4.647 E-.0721
;WIPE_END
G1 E-.04 F2100
G1 Z.6 F720
G1 X27.313 Y6.794 F10800
G1 Z.2 F720
G1 E.8 F2100
M204 S800
;TYPE:Perimeter
;WIDTH:0.419999
G1 F1200
G1 X27.763 Y6.464 E.01751
G1 X28.437 Y6.112 E.02384
G1 X28.956 Y5.936 E.01718
G1 X29.647 Y5.814 E.022
G1 X30.085 Y5.787 E.01375
G1 X220.04 Y5.792 E5.95589
G1 X220.93 Y5.911 E.02818
G1 X221.734 Y6.186 E.02663
G1 X222.225 Y6.456 E.01757
G1 X222.781 Y6.882 E.02195
G1 X223.357 Y7.508 E.02667
G1 X223.658 Y7.975 E.01741
G1 X223.972 Y8.678 E.02416
G1 X224.153 Y9.408 E.02357
G1 X224.213 Y10.139 E.023
G1 X224.213 Y199.903 E5.9499
G1 X224.15 Y200.625 E.02272
G1 X224.068 Y201.032 E.01303
G1 X223.888 Y201.563 E.01757
G1 X223.634 Y202.051 E.01725
G1 X223.309 Y202.557 E.01887
G1 X222.687 Y203.206 E.02816
G1 X222.237 Y203.536 E.01751
G1 X221.563 Y203.888 E.02384
G1 X221.044 Y204.064 E.01718
G1 X220.353 Y204.186 E.022
G1 X219.915 Y204.213 E.01375
G1 X30.097 Y204.213 E5.9516
G1 X29.375 Y204.15 E.02272
M73 P0 R127
G1 X28.968 Y204.068 E.01303
G1 X28.437 Y203.888 E.01757
G1 X27.765 Y203.538 E.02377
G1 X27.323 Y203.213 E.01719
G1 X26.787 Y202.677 E.02377
G1 X26.462 Y202.235 E.01719
G1 X26.112 Y201.563 E.02377
G1 X25.936 Y201.044 E.01719
G1 X25.814 Y200.353 E.022
G1 X25.787 Y199.915 E.01375
G1 X25.787 Y10.097 E5.9516
G1 X25.85 Y9.375 E.02272
M73 P1 R127
M73 Q1 S128
G1 X25.948 Y8.921 E.01457
G1 X26.142 Y8.381 E.018
G1 X26.491 Y7.723 E.02336
G1 X26.834 Y7.28 E.01758
G1 X27.271 Y6.837 E.01949
M204 S1000
G1 X27.073 Y6.502 F10800
M204 S800
;TYPE:External perimeter
G1 F1200
G1 X27.563 Y6.142 E.01906
G1 X28.289 Y5.765 E.02565
G1 X28.862 Y5.57 E.01899
G1 X29.582 Y5.443 E.02291
G1 X30.077 Y5.41 E.01555
G1 X220.04 Y5.415 E5.95615
G1 X221.036 Y5.549 E.03152
G1 X221.897 Y5.846 E.02857
G1 X222.432 Y6.139 E.01912
G1 X223.01 Y6.583 E.02286
G1 X223.277 Y6.853 E.0119
G1 X223.67 Y7.299 E.01864
G1 X224 Y7.815 E.01921
G1 X224.336 Y8.581 E.02621
G1 X224.528 Y9.375 E.02563
G1 X224.59 Y10.139 E.02403
G1 X224.59 Y199.919 E5.95042
G1 X224.526 Y200.658 E.02324
G1 X224.431 Y201.134 E.01522
G1 X224.235 Y201.711 E.01912
G1 X223.968 Y202.225 E.01816
G1 X223.66 Y202.72 E.01828
G1 X223.316 Y203.12 E.01653
G1 X222.927 Y203.498 E.01701
G1 X222.437 Y203.858 E.01906
G1 X221.711 Y204.235 E.02565
G1 X221.138 Y204.43 E.01899
G1 X220.418 Y204.557 E.02291
G1 X219.923 Y204.59 E.01555
G1 X30.081 Y204.59 E5.95238
G1 X29.342 Y204.526 E.02324
G1 X28.866 Y204.431 E.01522
G1 X28.289 Y204.235 E.01912
G1 X27.565 Y203.859 E.02558
G1 X27.076 Y203.5 E.019
G1 X26.5 Y202.924 E.02558
G1 X26.141 Y202.435 E.019
G1 X25.765 Y201.711 E.02558
G1 X25.57 Y201.138 E.019
G1 X25.443 Y200.418 E.02291
G1 X25.41 Y199.923 E.01555
G1 X25.41 Y10.081 E5.95238
G1 X25.474 Y9.342 E.02324
G1 X25.569 Y8.866 E.01522
G1 X25.765 Y8.289 E.01912
G1 X26.032 Y7.775 E.01816
G1 X26.34 Y7.28 E.01828
G1 X26.684 Y6.88 E.01653
G1 X27.03 Y6.544 E.01513
M204 S1000
G1 X27.448 Y6.64 F10800
;WIPE_START
G1 F8640
G1 X27.563 Y6.142 E-.15408
G1 X28.289 Y5.765 E-.18887
G1 X28.862 Y5.57 E-.13988
G1 X29.582 Y5.443 E-.16869
G1 X30.05 Y5.412 E-.10848
;WIPE_END
G1 E-.04 F2100
G1 Z.6 F720
G1 X222.274 Y201.792 F10800
G1 Z.2 F720
G1 E.8 F2100
M204 S800
;TYPE:Perimeter
G1 F1200
G1 X222.25 Y201.922 E.00414
G1 X222.104 Y202.138 E.00821
G1 X221.972 Y202.228 E.00499
G1 X221.721 Y202.287 E.00807
G1 X28.279 Y202.287 E6.06526
G1 X28.008 Y202.218 E.00874
M73 P1 R126
G1 X27.879 Y202.121 E.00508
G1 X27.782 Y201.992 E.00508
G1 X27.713 Y201.721 E.00874
G1 X27.713 Y8.279 E6.06526
G1 X27.795 Y7.985 E.00957
M73 Q1 S127
G1 X27.998 Y7.788 E.00886
G1 X28.279 Y7.713 E.00911
G1 X221.721 Y7.713 E6.06526
G1 X222.062 Y7.827 E.01126
M73 P2 R126
M73 Q2 S127
G1 X222.198 Y7.974 E.00629
G1 X222.287 Y8.279 E.00994
G1 X222.285 Y201.733 E6.06562
M204 S1000
G1 X221.91 Y201.721 F10800
M204 S800
;TYPE:External perimeter
G1 F1200
G1 X221.849 Y201.86 E.00476
G1 X221.721 Y201.91 E.00429
G1 X28.279 Y201.91 E6.06526
G1 X28.145 Y201.855 E.00452
G1 X28.09 Y201.721 E.00452
G1 X28.09 Y8.279 E6.06526
G1 X28.151 Y8.14 E.00476
G1 X28.279 Y8.09 E.00429
G1 X221.721 Y8.09 E6.06526
G1 X221.86 Y8.151 E.00476
M73 P2 R125
G1 X221.91 Y8.279 E.00429
G1 X221.91 Y201.661 E6.06338
M204 S1000
G1 X222.016 Y201.83 F10800
;WIPE_START
M73 Q2 S126
G1 F8640
G1 X221.849 Y201.86 E-.04807
G1 X221.721 Y201.91 E-.03156
G1 X218.775 Y201.91 E-.68037
;WIPE_END
G1 E-.04 F2100
G1 Z.6 F720
G1 X223.929 Y8.955 F10800
G1 Z.2 F720
G1 E.8 F2100
M204 S800
;TYPE:Solid infill
;WIDTH:0.420106
G1 F1200
G1 X221.283 Y6.309 E.11736
G1 X220.805 Y6.169 E.01562
G1 X220.583 Y6.142 E.00701
G1 X223.871 Y9.43 E.14584
G1 X223.922 Y10.014 E.0184
G1 X222.57 Y8.662 E.05996
G1 X222.57 Y9.196 E.01673
G1 X223.93 Y10.556 E.06033
G1 X223.93 Y11.09 E.01673
G1 X222.57 Y9.729 E.06033
G1 X222.57 Y10.263 E.01673
G1 X223.93 Y11.623 E.06033
G1 X223.93 Y12.156 E.01673
G1 X222.57 Y10.796 E.06033
G1 X222.57 Y11.33 E.01673
G1 X223.93 Y12.69 E.06033
G1 X223.93 Y13.223 E.01673
G1 X222.57 Y11.863 E.06033
G1 X222.57 Y12.396 E.01673
G1 X223.93 Y13.757 E.06033
G1 X223.93 Y14.29 E.01673
G1 X222.57 Y12.93 E.06033
G1 X222.57 Y13.463 E.01673
G1 X223.93 Y14.824 E.06033
G1 X223.93 Y15.357 E.01673
G1 X222.57 Y13.997 E.06033
G1 X222.57 Y14.53 E.01673
G1 X223.93 Y15.89 E.06033
G1 X223.93 Y16.424 E.01673
G1 X222.57 Y15.064 E.06033
G1 X222.57 Y15.597 E.01673
G1 X223.93 Y16.957 E.06033
G1 X223.93 Y17.491 E.01673
G1 X222.57 Y16.13 E.06033
G1 X222.57 Y16.664 E.01673
G1 X223.93 Y18.024 E.06033
G1 X223.93 Y18.557 E.01673
G1 X222.57 Y17.197 E.06033
G1 X222.57 Y17.731 E.01673
G1 X223.93 Y19.091 E.06033
G1 X223.93 Y19.624 E.01673
G1 X222.57 Y18.264 E.06033
G1 X222.57 Y18.797 E.01673
G1 X223.93 Y20.158 E.06033
G1 X223.93 Y20.691 E.01673
G1 X222.57 Y19.331 E.06033
G1 X222.57 Y19.864 E.01673
G1 X223.93 Y21.225 E.06033
G1 X223.93 Y21.758 E.01673
G1 X222.57 Y20.398 E.06033
G1 X222.57 Y20.931 E.01673
G1 X223.93 Y22.291 E.06033
G1 X223.93 Y22.825 E.01673
G1 X222.57 Y21.465 E.06033
G1 X222.57 Y21.998 E.01673
G1 X223.93 Y23.358 E.06033
G1 X223.93 Y23.892 E.01673
G1 X222.57 Y22.531 E.06033
G1 X222.57 Y23.065 E.01673
G1 X223.93 Y24.425 E.06033
G1 X223.93 Y24.959 E.01673
G1 X222.57 Y23.598 E.06033
G1 X222.57 Y24.132 E.01673
G1 X223.93 Y25.492 E.06033
G1 X223.93 Y26.025 E.01673
G1 X222.57 Y24.665 E.06033
G1 X222.57 Y25.199 E.01673
G1 X223.93 Y26.559 E.06033
G1 X223.93 Y27.092 E.01673
G1 X222.57 Y25.732 E.06033
G1 X222.57 Y26.265 E.01673
G1 X223.93 Y27.626 E.06033
G1 X223.93 Y28.159 E.01673
G1 X222.57 Y26.799 E.06033
G1 X222.57 Y27.332 E.01673
G1 X223.93 Y28.692 E.06033
G1 X223.93 Y29.226 E.01673
G1 X222.57 Y27.866 E.06033
G1 X222.57 Y28.399 E.01673
G1 X223.93 Y29.759 E.06033
G1 X223.93 Y30.293 E.01673
G1 X222.57 Y28.932 E.06033
G1 X222.57 Y29.466 E.01673
G1 X223.93 Y30.826 E.06033
G1 X223.93 Y31.36 E.01673
G1 X222.57 Y29.999 E.06033
G1 X222.57 Y30.533 E.01673
G1 X223.93 Y31.893 E.06033
G1 X223.93 Y32.426 E.01673
G1 X222.57 Y31.066 E.06033
G1 X222.57 Y31.6 E.01673
G1 X223.93 Y32.96 E.06033
G1 X223.93 Y33.493 E.01673
G1 X222.57 Y32.133 E.06033
G1 X222.57 Y32.666 E.01673
G1 X223.93 Y34.027 E.06033
G1 X223.93 Y34.56 E.01673
G1 X222.57 Y33.2 E.06033
G1 X222.57 Y33.733 E.01673
G1 X223.93 Y35.094 E.06033
G1 X223.93 Y35.627 E.01673
G1 X222.57 Y34.267 E.06033
G1 X222.57 Y34.8 E.01673
G1 X223.93 Y36.16 E.06033
G1 X223.93 Y36.694 E.01673
G1 X222.57 Y35.334 E.06033
G1 X222.57 Y35.867 E.01673
G1 X223.93 Y37.227 E.06033
G1 X223.93 Y37.761 E.01673
G1 X222.57 Y36.4 E.06033
G1 X222.57 Y36.934 E.01673
G1 X223.93 Y38.294 E.06033
G1 X223.93 Y38.827 E.01673
G1 X222.57 Y37.467 E.06033
G1 X222.57 Y38.001 E.01673
G1 X223.93 Y39.361 E.06033
G1 X223.93 Y39.894 E.01673
G1 X222.57 Y38.534 E.06033
G1 X222.57 Y39.067 E.01673
G1 X223.93 Y40.428 E.06033
G1 X223.93 Y40.961 E.01673
G1 X222.57 Y39.601 E.06033
G1 X222.57 Y40.134 E.01673
G1 X223.93 Y41.495 E.06033
G1 X223.93 Y42.028 E.01673
G1 X222.57 Y40.668 E.06033
G1 X222.57 Y41.201 E.01673
G1 X223.93 Y42.561 E.06033
G1 X223.93 Y43.095 E.01673
G1 X222.57 Y41.735 E.06033
G1 X222.57 Y42.268 E.01673
G1 X223.93 Y43.628 E.06033
G1 X223.93 Y44.162 E.01673
G1 X222.57 Y42.801 E.06033
G1 X222.57 Y43.335 E.01673
G1 X223.93 Y44.695 E.06033
G1 X223.93 Y45.229 E.01673
G1 X222.57 Y43.868 E.06033
G1 X222.57 Y44.402 E.01673
G1 X223.93 Y45.762 E.06033
G1 X223.93 Y46.295 E.01673
G1 X222.57 Y44.935 E.06033
G1 X222.57 Y45.469 E.01673
G1 X223.93 Y46.829 E.06033
G1 X223.93 Y47.362 E.01673
G1 X222.57 Y46.002 E.06033
G1 X222.57 Y46.535 E.01673
G1 X223.93 Y47.896 E.06033
G1 X223.93 Y48.429 E.01673
G1 X222.57 Y47.069 E.06033
G1 X222.57 Y47.602 E.01673
G1 X223.93 Y48.962 E.06033
G1 X223.93 Y49.496 E.01673
G1 X222.57 Y48.136 E.06033
G1 X222.57 Y48.669 E.01673
G1 X223.93 Y50.029 E.06033
G1 X223.93 Y50.563 E.01673
G1 X222.57 Y49.203 E.06033
G1 X222.57 Y49.736 E.01673
G1 X223.93 Y51.096 E.06033
G1 X223.93 Y51.63 E.01673
G1 X222.57 Y50.269 E.06033
G1 X222.57 Y50.803 E.01673
G1 X223.93 Y52.163 E.06033
G1 X223.93 Y52.696 E.01673
G1 X222.57 Y51.336 E.06033
G1 X222.57 Y51.87 E.01673
G1 X223.93 Y53.23 E.06033
G1 X223.93 Y53.763 E.01673
G1 X222.57 Y52.403 E.06033
G1 X222.57 Y52.936 E.01673
G1 X223.93 Y54.297 E.06033
G1 X223.93 Y54.83 E.01673
G1 X222.57 Y53.47 E.06033
G1 X222.57 Y54.003 E.01673
G1 X223.93 Y55.364 E.06033
G1 X223.93 Y55.897 E.01673
G1 X222.57 Y54.537 E.06033
G1 X222.57 Y55.07 E.01673
G1 X223.93 Y56.43 E.06033
G1 X223.93 Y56.964 E.01673
G1 X222.57 Y55.604 E.06033
G1 X222.57 Y56.137 E.01673
G1 X223.93 Y57.497 E.06033
G1 X223.93 Y58.031 E.01673
G1 X222.57 Y56.67 E.06033
G1 X222.57 Y57.204 E.01673
G1 X223.93 Y58.564 E.06033
G1 X223.93 Y59.097 E.01673
G1 X222.57 Y57.737 E.06033
G1 X222.57 Y58.271 E.01673
G1 X223.93 Y59.631 E.06033
G1 X223.93 Y60.164 E.01673
G1 X222.57 Y58.804 E.06033
G1 X222.57 Y59.338 E.01673
G1 X223.93 Y60.698 E.06033
G1 X223.93 Y61.231 E.01673
G1 X222.57 Y59.871 E.06033
G1 X222.57 Y60.404 E.01673
G1 X223.93 Y61.765 E.06033
G1 X223.93 Y62.298 E.01673
G1 X222.57 Y60.938 E.06033
G1 X222.57 Y61.471 E.01673
G1 X223.93 Y62.831 E.06033
G1 X223.93 Y63.365 E.01673
G1 X222.57 Y62.005 E.06033
G1 X222.57 Y62.538 E.01673
G1 X223.93 Y63.898 E.06033
G1 X223.93 Y64.432 E.01673
G1 X222.57 Y63.071 E.06033
G1 X222.57 Y63.605 E.01673
G1 X223.93 Y64.965 E.06033
G1 X223.93 Y65.499 E.01673
G1 X222.57 Y64.138 E.06033
G1 X222.57 Y64.672 E.01673
G1 X223.93 Y66.032 E.06033
G1 X223.93 Y66.565 E.01673
G1 X222.57 Y65.205 E.06033
G1 X222.57 Y65.739 E.01673
G1 X223.93 Y67.099 E.06033
G1 X223.93 Y67.632 E.01673
G1 X222.57 Y66.272 E.06033
G1 X222.57 Y66.805 E.01673
G1 X223.93 Y68.166 E.06033
G1 X223.93 Y68.699 E.01673
G1 X222.57 Y67.339 E.06033
G1 X222.57 Y67.872 E.01673
G1 X223.93 Y69.233 E.06033
G1 X223.93 Y69.766 E.01673
G1 X222.57 Y68.406 E.06033
G1 X222.57 Y68.939 E.01673
G1 X223.93 Y70.299 E.06033
G1 X223.93 Y70.833 E.01673
G1 X222.57 Y69.473 E.06033
G1 X222.57 Y70.006 E.01673
G1 X223.93 Y71.366 E.06033
G1 X223.93 Y71.9 E.01673
G1 X222.57 Y70.539 E.06033
G1 X222.57 Y71.073 E.01673
G1 X223.93 Y72.433 E.06033
G1 X223.93 Y72.966 E.01673
G1 X222.57 Y71.606 E.06033
G1 X222.57 Y72.14 E.01673
G1 X223.93 Y73.5 E.06033
G1 X223.93 Y74.033 E.01673
G1 X222.57 Y72.673 E.06033
G1 X222.57 Y73.206 E.01673
G1 X223.93 Y74.567 E.06033
G1 X223.93 Y75.1 E.01673
G1 X222.57 Y73.74 E.06033
G1 X222.57 Y74.273 E.01673
G1 X223.93 Y75.634 E.06033
G1 X223.93 Y76.167 E.01673
G1 X222.57 Y74.807 E.06033
G1 X222.57 Y75.34 E.01673
G1 X223.93 Y76.7 E.06033
G1 X223.93 Y77.234 E.01673
G1 X222.57 Y75.874 E.06033
G1 X222.57 Y76.407 E.01673
G1 X223.93 Y77.767 E.06033
G1 X223.93 Y78.301 E.01673
G1 X222.57 Y76.94 E.06033
G1 X222.57 Y77.474 E.01673
G1 X223.93 Y78.834 E.06033
G1 X223.93 Y79.368 E.01673
G1 X222.57 Y78.007 E.06033
G1 X222.57 Y78.541 E.01673
G1 X223.93 Y79.901 E.06033
G1 X223.93 Y80.434 E.01673
G1 X222.57 Y79.074 E.06033
G1 X222.57 Y79.608 E.01673
G1 X223.93 Y80.968 E.06033
G1 X223.93 Y81.501 E.01673
G1 X222.57 Y80.141 E.06033
G1 X222.57 Y80.674 E.01673
G1 X223.93 Y82.035 E.06033
G1 X223.93 Y82.568 E.01673
G1 X222.57 Y81.208 E.06033
G1 X222.57 Y81.741 E.01673
G1 X223.93 Y83.101 E.06033
G1 X223.93 Y83.635 E.01673
G1 X222.57 Y82.275 E.06033
G1 X222.57 Y82.808 E.01673
G1 X223.93 Y84.168 E.06033
G1 X223.93 Y84.702 E.01673
G1 X222.57 Y83.341 E.06033
G1 X222.57 Y83.875 E.01673
G1 X223.93 Y85.235 E.06033
G1 X223.93 Y85.769 E.01673
G1 X222.57 Y84.408 E.06033
G1 X222.57 Y84.942 E.01673
G1 X223.93 Y86.302 E.06033
G1 X223.93 Y86.835 E.01673
G1 X222.57 Y85.475 E.06033
G1 X222.57 Y86.009 E.01673
G1 X223.93 Y87.369 E.06033
G1 X223.93 Y87.902 E.01673
G1 X222.57 Y86.542 E.06033
G1 X222.57 Y87.075 E.01673
G1 X223.93 Y88.436 E.06033
G1 X223.93 Y88.969 E.01673
G1 X222.57 Y87.609 E.06033
G1 X222.57 Y88.142 E.01673
G1 X223.93 Y89.503 E.06033
G1 X223.93 Y90.036 E.01673
G1 X222.57 Y88.676 E.06033
G1 X222.57 Y89.209 E.01673
G1 X223.93 Y90.569 E.06033
G1 X223.93 Y91.103 E.01673
G1 X222.57 Y89.743 E.06033
G1 X222.57 Y90.276 E.01673
G1 X223.93 Y91.636 E.06033
G1 X223.93 Y92.17 E.01673
G1 X222.57 Y90.809 E.06033
G1 X222.57 Y91.343 E.01673
G1 X223.93 Y92.703 E.06033
G1 X223.93 Y93.236 E.01673
G1 X222.57 Y91.876 E.06033
G1 X222.57 Y92.41 E.01673
G1 X223.93 Y93.77 E.06033
G1 X223.93 Y94.303 E.01673
G1 X222.57 Y92.943 E.06033
